X:725
T:untitled
A:Wyresdale, Lancashire
B:E and J Winder, 1835-41
L:1/8
M:6/8
N: key sig unclear. at least one flat, maybe 2
O:England
Z:Richard Robinson 
%%TUNEURL: http://www.leeds.ac.uk/music/Info/RRTuneBk/gettune/00001063.html
%%ID:00001063
K:F
F z/(c/d/c/) A z/(a/b/a/) | f z/(d/e/d/) B z/(g/a/g/) | \
e z/(c/d/c/) A z/(f/g/f/) | d2B G2E | \
F z/(c/d/c/) A z/(a/b/a/) | f z(d/e/d/) B z/(g/a/g/) | ! e2c d2e | f3 f2 || \
c |\
cBA fed | cAF EGc | cBA AGF | A3 G2c |\
cBA fed | cAF EGc | cBA BGE | (G3 F2) ::
